app/ui/static/images/icons/solid/plus-small.svg

<svg width="20" height="20" viewBox="0 0 20 20" fill="none" xmlns="http://www.w3.org/2000/svg">
<path d="M10.75 6.75C10.75 6.33579 10.4142 6 10 6C9.58579 6 9.25 6.33579 9.25 6.75V9.25H6.75C6.33579 9.25 6 9.58579 6 10C6 10.4142 6.33579 10.75 6.75 10.75L9.25 10.75V13.25C9.25 13.6642 9.58579 14 10 14C10.4142 14 10.75 13.6642 10.75 13.25V10.75L13.25 10.75C13.6642 10.75 14 10.4142 14 10C14 9.58579 13.6642 9.25 13.25 9.25H10.75V6.75Z" fill="#0F172A"/>
</svg>

<svg xmlns="http://www.w3.org/2000/svg" viewBox="0 0 20 20" fill="currentColor" aria-hidden="true">
  <path d="M10.75 6.75a.75.75 0 00-1.5 0v2.5h-2.5a.75.75 0 000 1.5h2.5v2.5a.75.75 0 001.5 0v-2.5h2.5a.75.75 0 000-1.5h-2.5v-2.5z"/>
</svg>
